src/OnboardingSPA/static/icons/business.svg

<svg fill="none" height="16" viewBox="0 0 18 16" width="18" xmlns="http://www.w3.org/2000/svg"><path clip-rule="evenodd" d="m12.2372 2.49024h5.4026c.2021 0 .3602.15618.3602.35575v12.79831c0 .1995-.1581.3557-.3602.3557h-17.279624c-.20205 0-.360176-.1562-.360176-.3557v-12.79831c0-.19957.158126-.35575.360176-.35575h5.402634v-2.134492c0-.199566.15813-.355748.36018-.355748h5.76281c.202 0 .3602.156182.3602.355748h-.0088zm-1.4407-1.06725h-3.60177v1.06725h3.60177zm5.7628 13.15401h-15.1186v-3.2017h4.68229v1.0672c0 .1996.15812.3558.36017.3558h5.03364c.2021 0 .3602-.1562.3602-.3558v-1.0672h4.6823zm-8.99561-4.62472v1.42302h2.88141v-1.42302zm9.00441 0h-4.6823v-1.05857c0-.19957-.1581-.35575-.3602-.35575h-5.04244c-.20205 0-.36017.15618-.36017.35575v1.06724h-4.68229v-6.04772h15.1274z" fill="#000" fill-rule="evenodd"/></svg>

<svg width="18" height="16" viewBox="0 0 18 16" fill="none" xmlns="http://www.w3.org/2000/svg">
<path fill-rule="evenodd" clip-rule="evenodd" 
d="M12.2372 2.49024H17.6398C17.8419 2.49024 18 2.64642 18 2.84599V15.6443C18 15.8438 17.8419 16 17.6398 16H0.360176C0.158126 16 0 15.8438 0 15.6443V2.84599C0 2.64642 0.158126 2.49024 0.360176 2.49024H5.76281V0.355748C5.76281 0.156182 5.92094 0 6.12299 0H11.8858C12.0878 0 12.246 0.156182 12.246 0.355748H12.2372V2.49024ZM10.7965 1.42299H7.19473V2.49024H10.7965V1.42299ZM16.5593 14.577H1.4407V11.3753H6.12299V12.4425C6.12299 12.6421 6.28111 12.7983 6.48316 12.7983H11.5168C11.7189 12.7983 11.877 12.6421 11.877 12.4425V11.3753H16.5593V14.577ZM7.56369 9.95228V11.3753H10.4451V9.95228H7.56369ZM16.5681 9.95228H11.8858V8.89371C11.8858 8.69414 11.7277 8.53796 11.5256 8.53796H6.48316C6.28111 8.53796 6.12299 8.69414 6.12299 8.89371V9.96095H1.4407V3.91323H16.5681V9.95228Z" 
fill="black"/>
</svg>
